build/assets/images/svg/icons/lk/basket/bell.svg

<svg width="32" height="32" viewBox="0 0 32 32" fill="none" xmlns="http://www.w3.org/2000/svg">
<rect width="32" height="32" rx="8" fill="#F4F7FB"/>
<path fill-rule="evenodd" clip-rule="evenodd" d="M16.7488 9.26723C16.7488 8.85415 16.4139 8.51929 16.0009 8.51929C15.5878 8.51929 15.2529 8.85415 15.2529 9.26723V9.6942C12.7158 10.057 10.7653 12.2382 10.7653 14.876L10.7653 17.868C10.7653 17.868 10.7653 17.8679 10.7653 17.868C10.7652 17.8694 10.7647 17.8795 10.7615 17.8991C10.7576 17.9227 10.7507 17.9547 10.7393 17.9959C10.7161 18.0794 10.6793 18.1835 10.6279 18.3064C10.5248 18.553 10.3794 18.8369 10.2186 19.1233C9.91634 19.6617 9.76397 20.3034 9.87836 20.9136C9.99899 21.5571 10.4132 22.1182 11.1206 22.3876C11.7526 22.6282 12.5937 22.8482 13.7046 22.9792C13.731 23.0021 13.7623 23.0284 13.7982 23.0571C13.9106 23.147 14.0712 23.2636 14.2741 23.3795C14.677 23.6097 15.2725 23.852 16.0009 23.852C16.7292 23.852 17.3248 23.6097 17.7276 23.3795C17.9306 23.2636 18.0911 23.147 18.2036 23.0571C18.2395 23.0284 18.2707 23.0021 18.2971 22.9792C19.408 22.8482 20.2492 22.6282 20.8811 22.3876C21.5885 22.1182 22.0027 21.5571 22.1234 20.9136C22.2378 20.3034 22.0854 19.6617 21.7831 19.1233C21.6224 18.8369 21.477 18.553 21.3739 18.3064C21.3224 18.1835 21.2856 18.0794 21.2625 17.9959C21.2511 17.9547 21.2442 17.9227 21.2403 17.8991C21.237 17.8795 21.2365 17.8696 21.2365 17.8682C21.2365 17.8681 21.2365 17.8682 21.2365 17.8682L21.2364 17.8619V14.8763C21.2364 12.2386 19.286 10.0571 16.7488 9.69421V9.26723ZM12.2612 14.876C12.2612 12.8108 13.9353 11.1371 16.0009 11.1371C18.0663 11.1371 19.7406 12.811 19.7406 14.8763V17.8685C19.7406 18.2148 19.8703 18.5882 19.9938 18.8836C20.128 19.2044 20.3038 19.5439 20.4787 19.8555C20.6488 20.1584 20.6893 20.4447 20.6531 20.638C20.6231 20.7979 20.5432 20.9156 20.3488 20.9896C19.5449 21.2957 18.1878 21.6082 16.0009 21.6082C13.8139 21.6082 12.4568 21.2957 11.6529 20.9896C11.4585 20.9156 11.3786 20.7979 11.3486 20.638C11.3124 20.4447 11.353 20.1584 11.523 19.8555C11.6979 19.5439 11.8738 19.2044 12.0079 18.8836C12.1314 18.5882 12.2612 18.2148 12.2612 17.8685V14.876Z" fill="#203686"/>
</svg>

<svg width="32" height="32" fill="none" xmlns="http://www.w3.org/2000/svg"><rect width="32" height="32" rx="8" fill="#F4F7FB"/><path fill-rule="evenodd" clip-rule="evenodd" d="M16.749 9.267a.748.748 0 00-1.496 0v.427a5.236 5.236 0 00-4.488 5.182v2.992c0 .001 0 .012-.004.031a.955.955 0 01-.022.097c-.023.083-.06.188-.111.31-.103.247-.249.53-.41.817-.302.539-.454 1.18-.34 1.79a1.925 1.925 0 001.243 1.475c.632.24 1.473.46 2.584.591a3.722 3.722 0 00.57.4c.402.23.998.473 1.726.473s1.324-.242 1.727-.473a3.724 3.724 0 00.57-.4c1.11-.13 1.951-.35 2.583-.591a1.923 1.923 0 001.242-1.474c.115-.61-.038-1.252-.34-1.79a8.248 8.248 0 01-.41-.818 2.674 2.674 0 01-.11-.31.955.955 0 01-.027-.128v-2.992a5.236 5.236 0 00-4.487-5.182v-.427zm-4.488 5.609a3.739 3.739 0 117.48 0v2.993c0 .346.13.72.253 1.015.134.32.31.66.485.971.17.303.21.59.174.783-.03.16-.11.278-.304.352-.804.306-2.161.618-4.348.618s-3.544-.312-4.348-.618c-.194-.074-.274-.192-.304-.352-.037-.193.004-.48.174-.783a9.69 9.69 0 00.485-.971c.123-.296.253-.67.253-1.015v-2.993z" fill="#203686"/></svg>
